material/.icons/material/school-outline.svg

<svg xmlns="http://www.w3.org/2000/svg" viewBox="0 0 24 24"><path d="M12 3L1 9l4 2.18v6L12 21l7-3.82v-6l2-1.09V17h2V9L12 3m6.82 6L12 12.72 5.18 9 12 5.28 18.82 9M17 16l-5 2.72L7 16v-3.73L12 15l5-2.73V16z"/></svg>

<?xml version="1.0" encoding="UTF-8"?><!DOCTYPE svg PUBLIC "-//W3C//DTD SVG 1.1//EN" "http://www.w3.org/Graphics/SVG/1.1/DTD/svg11.dtd"><svg xmlns="http://www.w3.org/2000/svg" xmlns:xlink="http://www.w3.org/1999/xlink" version="1.1" id="mdi-school-outline" width="24" height="24" viewBox="0 0 24 24"><path d="M12 3L1 9L5 11.18V17.18L12 21L19 17.18V11.18L21 10.09V17H23V9L12 3M18.82 9L12 12.72L5.18 9L12 5.28L18.82 9M17 16L12 18.72L7 16V12.27L12 15L17 12.27V16Z" /></svg>
